!!!COM: Palestrina, Giovanni Perluigi da
!!!OPR: Missa Emendemus in melius
!!!OMD: Credo
!!!OTL: Et in Spiritum
**kern	**kern	**kern	**kern
*Ibass	*Itenor	*Icalto	*Icant
!Bassus	!Tenor	!Altus	!Cantus
*clefF4	*clefGv2	*clefG2	*clefG2
*k[b-]	*k[b-]	*k[b-]	*k[b-]
*G:dor	*G:dor	*G:dor	*G:dor
*M4/2	*M4/2	*M4/2	*M4/2
=97	=97	=97	=97
1C	1c	1e	1g
2C	2c	2e	2g
[2F	[2c	[2f	[2a
=98	=98	=98	=98
4F]	4c]	4f]	4a]
4F	4c	4f	4a
2C	2c	2e	2g
2D	2A	2d	2f
2D	2A	2d	2f
=99	=99	=99	=99
2BB-	2B-	2d	2f
2C	2G	2c	2e
1GG	2G	4B-	2d
.	.	4c	.
.	[2B-	4d	[2dd
.	.	4e	.
=100	=100	=100	=100
0r	2B-]	2f	2dd]
.	2A	1f	2cc
.	2B-	.	2dd
.	2c	2e	4cc
.	.	.	4b-
=101	=101	=101	=101
0r	2d	2f	2a
.	2e-	1g	2g
.	1d	.	1a
.	.	2f#	.
=102	=102	=102	=102
2r	2r	1g	1g
1G	1B-	.	.
.	.	2r	1r
2F	2A	[2d	.
=103	=103	=103	=103
2G	2B-	2d]	0r
2A	2A	2c	.
[1B-	2G	2d	.
.	2G	2e	.
=104	=104	=104	=104
2B-]	1F	2.f	2r
2A	.	.	2.cc
.	.	4f	.
1G	1r	2e	.
.	.	.	4b-
.	.	[2d	2b-
=105	=105	=105	=105
2F	2r	4d]	2a
.	.	4c	.
2E	2G	1c	2g
1D	2A	.	1f
.	2F	2B	.
=106	=106	=106	=106
2C	2G	2c	2e
1C	1c	1e	1g
2C	2c	2e	2g
=107	=107	=107	=107
1AA	1c	2f	1a
.	.	2e	.
2BB-	2B-	1d	2g
2BB-	2B-	.	2f
=108	=108	=108	=108
2C	2A	2c	2f
2C	2G	2c	2e
2D	2F	2A	2d
[2BB-	[2B-	[2f	[2dd
=109	=109	=109	=109
2BB-]	2B-]	2f]	2dd]
2AA	2c	2f	2cc
2BB-	2d	2f	2b-
2D	2d	2f	2a
=110	=110	=110	=110
1E-	1B-	0e-	0g
1C	1c	.	.
=111	=111	=111	=111
2D	2A	2d	2f
2BB-	2B-	2f	2dd
2BB-	2B-	2f	2dd
2AA	2c	2f	2cc
=112	=112	=112	=112
2BB-	2d	2f	2b-
2F	2c	2f	2a
1G	1B-	1d	1g
=113	=113	=113	=113
2D	2A	2d	2f
1BB-	1B-	1d	1f
2F	2A	2c	2f
=114	=114	=114	=114
2BB-	2B-	2d	2f
2F	2A	2c	2f
2G	1B-	4B-	2d
.	.	4A	.
[2B-	.	4G	[2dd
.	.	4A	.
=115	=115	=115	=115
4B-]	2.G	4B-	4dd]
4A	.	4c	4cc
4G	.	2d	4b-
4F	4A	.	4a
2.E-	2B-	[1e-	2g
.	2G	.	2b-
4D	.	.	.
=116	=116	=116	=116
2C	4c	2e-]	4a
.	4B-	.	4g
2E-	4A	2c	1g
.	4G	.	.
1D	1A	1d	.
.	.	.	2f#
=117	=117	=117	=117
0GG	0G	1B	1g
.	.	2r	2r
.	.	2G	2g
=118	=118	=118	=118
0r	0r	2B-	2g
.	.	2c	2g
.	.	1d	1f
=119	=119	=119	=119
2r	2r	2c	2e
2D	2d	2A	2f
2G	2d	2.B-	2.g
2G	2B-	.	.
.	.	4B-	4g
=120	=120	=120	=120
2.F	2.c	1A	1a
4F	4c	.	.
2F	2A	2r	2r
2D	2B-	2F	2d
=121	=121	=121	=121
2E-	2c	2.G	2.g
2E-	2c	.	.
.	.	4G	4g
[1D	[1d	2A	2f
.	.	2B-	2f
=122	=122	=122	=122
1D]	1d]	2A	2f
.	.	2B-	2d
1r	1r	1c	1e-
=123	=123	=123	=123
1.G	2r	2B-	2d
.	1B-	1d	1g
2G	2G	2d	2b-
=124	=124	=124	=124
2F#	2A	2d	2a
2G	2B-	2d	2g
1C	1c	1e	1g
=125	=125	=125	=125
1D	2A	2.d	1f
.	2.d	.	.
.	.	4c	.
2.G	.	2B-	1g
.	4c	.	.
.	4B-	[2g	.
4F	4A	.	.
=126	=126	=126	=126
2E-	2G	2g]	1b-
2D	1B-	2f	.
1C	.	1e-	1cc
.	2A	.	.
=127	=127	=127	=127
2BB-	2B-	2d	2dd
1BB-	1B-	1f	1dd
2BB-	2B-	2f	2dd
=128	=128	=128	=128
2.F	2.A	2.f	2.cc
4F	4A	4f	4cc
2F	2A	2f	2cc
2G	2B-	2d	2b-
=129	=129	=129	=129
2A	2c	1f	2a
2B-	2d	.	2f
2E-	2.c	2e-	2g
2F	.	[2c	2a
.	4d	.	.
=130	=130	=130	=130
1G	2e-	2c]	2g
.	2d	2B-	2g
1E-	2c	2e-	1g
.	[2B-	2e-	.
=131	=131	=131	=131
1F	2B-]	1c	1f
.	2A	.	.
[1BB-	1B-	1d	2r
.	.	.	2b-
=132	=132	=132	=132
1BB-]	2r	2r	1dd
.	2B-	2d	.
1r	1e-	1g	2cc
.	.	.	2b-
=133	=133	=133	=133
0r	2d	2f	2b-
.	2c	2e-	2a
.	2c	2e-	2.g
.	2B-	2d	.
.	.	.	4g
=134	=134	=134	=134
0r	2A	2c	2a
.	2G	2B-	2.b-
.	2B-	2d	.
.	.	.	4a
.	2c	2e-	[2g
=135	=135	=135	=135
1D	2A	1d	2g]
.	2A	.	2f#
1G	1B-	2r	1g
.	.	2G	.
=136	=136	=136	=136
2F	2A	1c	1r
2E-	2G	.	.
2E-	2G	1B-	2r
2D	2F	.	2b-
=137	=137	=137	=137
2C	2G	1c	1ee-
2C	2A	.	.
2.BB-	2B-	1f	2dd
.	2B-	.	2dd
4C	.	.	.
=138	=138	=138	=138
4D	2B-	1f	2dd
4E	.	.	.
2F	2A	.	2cc
1BB-	2d	2.f	2.b-
.	2d	.	.
.	.	4f	4b-
=139	=139	=139	=139
1C	1c	1e-	2a
.	.	.	1g
1D	1A	1d	.
.	.	.	2f#
=140	=140	=140	=140
0GG	0B	0d	0g
==	==	==	==
*-	*-	*-	*-
!!!CDT: 1525/^1526/-1594/2/2
!!!OCY: Italia
!!!AGN: Mass (Parody)
!!!AST: renaissance, vocal
!!!ASW: Antiphon
!!!PWK: Masses, Book 7
!!!RNB: Cadence finals: D
!!!YOR: Le Opere Complete, v. 23, p. 61
!!!YOO: Rome, Italy: Fratelli Scalera
!!!END: 1992//
!!!EED: John Miller
!!!YEC: Copyright 2000, John Miller
!!!YEN: United States of America
!!!YEM: Rights to all derivative electronic formats reserved.
!!!YEM: Refer to licensing agreement for further details.
!!!YEM: This file must be accompanied by the licensing agreement.
!!!YEM: A copy of the licensing agreement may be found at http://www.music-cog.ohio-state.edu/HumdrumDatabases/Palestrina/license.txt
!!!EMD: converted to Humdrum by Bret Aarden
